teeny/solid/spotify.svg

<svg width="15" height="15" viewBox="0 0 15 15" fill="none" xmlns="http://www.w3.org/2000/svg">
<path fill-rule="evenodd" clip-rule="evenodd" d="M0 7.5C0 3.35806 3.35739 0 7.5 0C11.6426 0 15 3.35806 15 7.5C15 11.6419 11.6426 15 7.5 15C3.35739 15 0 11.6419 0 7.5ZM7.72559 5.29726C6.10452 5.1645 4.45445 5.36298 3.10145 5.84102L2.76831 4.89814C4.26827 4.36818 6.06128 4.15762 7.80721 4.3006C9.55134 4.44343 11.2864 4.94242 12.6506 5.86902L12.0887 6.69623C10.9043 5.8917 9.34846 5.43017 7.72559 5.29726ZM3.32631 7.99238C6.77208 7.38276 9.1744 7.69462 11.165 9.12359L11.7482 8.31123C9.44992 6.66142 6.7319 6.37433 3.1521 7.00767L3.32631 7.99238ZM3.66189 10.1162C4.64824 9.87575 5.86143 9.77071 7.05416 9.8879C8.25008 10.0054 9.38823 10.3424 10.2559 10.9525L10.8311 10.1345C9.77767 9.39382 8.45578 9.0208 7.15194 8.8927C5.8449 8.76428 4.51861 8.87807 3.42505 9.14466L3.66189 10.1162Z" fill="black"/>
</svg>

<svg viewBox="0 0 15 15" xmlns="http://www.w3.org/2000/svg"><path fill-rule="evenodd" d="M0 7.5C0 3.35 3.35 0 7.5 0 11.64 0 15 3.35 15 7.5c0 4.14-3.36 7.5-7.5 7.5C3.35 15 0 11.64 0 7.5Zm7.72-2.21c-1.63-.14-3.28.06-4.63.54l-.34-.95c1.49-.53 3.29-.75 5.03-.6 1.74.14 3.47.64 4.84 1.56l-.57.82c-1.19-.81-2.75-1.27-4.37-1.4Zm-4.4 2.69c3.44-.61 5.84-.3 7.83 1.13l.58-.82c-2.3-1.65-5.02-1.94-8.6-1.31l.17.98Zm.33 2.12c.98-.25 2.19-.35 3.39-.23 1.19.11 2.33.45 3.2 1.06l.57-.82c-1.06-.75-2.38-1.12-3.68-1.25 -1.31-.13-2.64-.02-3.73.25l.23.97Z"/></svg>
